X:1
T:Title
%%score ( 1 2 ) { 3 | 4 }
L:1/8
Q:1/4=95
M:4/4
K:Ab
V:1 treble nm="Oboe, Soprano"
V:2 treble 
V:3 treble nm="Drawbar Organ, Houdini, 87.87 D"
V:4 bass 
V:1
 z4 z2 c2 | c2 z2 z4 | C>C C2- C/ z/ D C2 | _C2 =C6 | [ce]>[ce] [ce]2- [ce][Bd] [Ac]2 | .d2 z2 z4 | %6
 z4 z2 .c2 | F-[FB] [=Ec]6 | c>c [=Af]2- [Af][Af]fe | dc [ce]4 [Bd]2 | %10
 [Ed]>[EB] [EA]2- [EA][Ec] [EB]2 | [Ge]2 [Ae]6 | z4 z2 .c2 | [EB][_GA] [FA]4 [FA]2 | %14
 (3[F-A][F-d][FAf] [Ae]2- [Ae][CE] [Ec]2- | [Ec][DB] [CA]6- | [CA]2 z2 z4 |] %17
V:2
 c>c c2- c/ z/ [=Ec] FG | AG [Fd]4 [Ec]2 | x8 | x8 | x8 | A-[Ae] [Af]4 [Ae]2 | %6
 [Fd]>[Fd] [Fc]2- [Fc][=Ec]F-[FB] | .A2 z2 z4 | z4 z2 =A2 | =A2 z2 z4 | x8 | x8 | %12
 [Ae]>[Gd] [Ac]2- [Ac][Ec]E-[EB] | x8 | x8 | x8 | x8 |] %17
V:3
 C>C C2- C/ z/ C C[K:bass]B, | A,2 A,4 A,2 | C,>C, C,2- C,/ z/ D, C,2 | _C,2 =C,6 | E>E E2- EDCE | %5
 DC D4 C2 | B,>B, A,2- A,G, F,2 | F,2 G,6 | C>C C2- CC C2 | F2 F4 F2 | F>D C2- CA, B,2 | D2 C6 | %12
 E>E E2- E[K:bass]A, G,2 | A,2 D4 D2 | (3:2:2D2 D C2- CA,[K:bass] G,2- | G,G, A,6- | A,2 z2 z4 |] %17
V:4
 z4 z B,A,G, | F,E, D,4 A,,2 | z8 | z8 | C>C C2- CB,[K:bass]A,_G, | F,E, D,4 A,,2 | %6
 B,,>B,, C,2- C,C, D,2 | D,2 C,6 | z2 F,2- F,F, F,2 | F,2 B,4 B,2 | G,>G, A,4 G,2 | E,2 A,6 | %12
 C>B, A,2- A,A,, B,,2 | B,,2 D,4 D,2 | (3:2:2D,2 D, E,2- E,E, E,2- | E,E, A,,6- | A,,2 z2 z4 |] %17

